!!!!SEGMENT: pl-wtm--r-1183--002_lessel-franciszek--adagio-et-polonoise-polonaise.krn
!!!cenid: 18xx:1631
!!!COM: Lessel, Franciszek
!!!COM-rismid: pe30004332
!!!CDT: 1780-1838/12/26
!!!CNT: Polish
!!!OPR: Adagio et Polonoise
!!!OTL: Polonaise
!!!OMV: 002
!!!PDT: 1807
!!!AGN: Secular; Polonaise
!!!SMS-siglum: PL-Wtm
!!!SMS-shelfmark: R 1183
!!!SMS-shelfwork: 001-002 M
!!!SMS-variant:
!!!SMS-altvar:
!!!NIFC-rismid: 1001087657
!!!URL-scan: http://repozytorium.nifc.pl/skany/pl-wtm-nut--r1183
!!!ONB-nifc: UWAGA: części: 1. Andantino, 2. Polonaise
!!!key:
**kern	**kern	**dynam	**kern	**dynam
*part2	*part2	*part2	*part1	*part1
*staff3	*staff2	*	*staff1	*
*Iempty	*Ipiano	*	*Icello	*
*I"	*I"[Piano]	*	*I"[Violon Oblig.]	*
*	*I'pf	*	*I'vn	*
*clefF4	*clefG2	*	*clefG2	*
*k[f#c#]	*k[f#c#]	*	*k[f#c#]	*
*D:	*D:	*	*D:	*
*M3/4	*M3/4	*	*M3/4	*
!	!LO:TX:i:t=Polon&colon;	!	!LO:TX:i:t=Polon&colon;	!
!	!LO:TX:i:t=Moderato	!	!LO:TX:t=moderato	!
!	!	!LO:DY:t=p.	!	!
8r	8r	p	8a\	.
=1	=1	=1	=1	=1
!	!	!	!LO:TX:a:i:t=Dol	!
4DD/ 4D	8r	.	8cc#^<\	.
.	8A/ 8d 8f#	.	4dd^<\	.
*	*tremolo	*	*	*
4r	8A/ 8d 8f#L	.	.	.
.	8A/ 8d 8f#	.	16bb\LL	.
.	.	.	16aa\JJ	.
4r	8A/ 8d 8f#	.	16gg\LL	.
.	.	.	16ff#\	.
.	8A/ 8d 8f#J	.	16ee\	.
*	*Xtremolo	*	*	*
.	.	.	16ff#\JJ	.
=2	=2	=2	=2	=2
4DD/ 4D	8r	.	8cc#^<\	.
.	8A/ 8d 8f#	.	4dd^<\	.
*	*tremolo	*	*	*
4r	8A/ 8d 8f#L	.	.	.
.	8A/ 8d 8f#	.	16ddd\LL	.
.	.	.	16ccc#\JJ	.
4r	8A/ 8d 8f#	.	16bb\LL	.
.	.	.	16aa\	.
.	8A/ 8d 8f#J	.	16gg\	.
*	*Xtremolo	*	*	*
.	.	.	16ff#\JJ	.
=3	=3	=3	=3	=3
4GG/	8r	.	8ee\	.
.	8B/ 8e 8g	.	4bb^<\	.
*	*tremolo	*	*	*
4r	8B/ 8e 8gL	.	.	.
.	8B/ 8e 8g	.	16aa\LL	.
.	.	.	16gg\JJ	.
4r	8B/ 8e 8g	.	16ff#\LL	.
.	.	.	16ee\	.
.	8B/ 8e 8gJ	.	16gg\	.
*	*Xtremolo	*	*	*
.	.	.	16ee\JJ	.
=4	=4	=4	=4	=4
4AA/	8r	.	16dd\LL	.
.	.	.	16cc#\	.
.	8A/ 8c# 8e 8g	.	16ff#\	.
.	.	.	16ee\JJ	.
*	*tremolo	*	*	*
4r	8A/ 8c# 8e 8gL	.	16dd\LL	.
.	.	.	16cc#\	.
.	8A/ 8c# 8e 8g	.	16b\	.
.	.	.	16a\JJ	.
4r	8A/ 8c# 8e 8g	.	16aa\LL	.
.	.	.	16ff#\	.
.	8A/ 8c# 8e 8gJ	.	16gg\	.
*	*Xtremolo	*	*	*
.	.	.	16ee\JJ	.
!	!	!	!LO:LB:g=original	!
=5	=5	=5	=5	=5
4DD/ 4D	8r	.	8cc#\	.
.	8A/ 8d 8f#	.	4dd^<\	.
*	*tremolo	*	*	*
4r	8A/ 8d 8f#L	.	.	.
.	8A/ 8d 8f#	.	16bb\LL	.
.	.	.	16aa\JJ	.
4r	8A/ 8d 8f#	.	16gg\LL	.
.	.	.	16ff#\	.
.	8A/ 8d 8f#J	.	16ee\	.
*	*Xtremolo	*	*	*
.	.	.	16ff#\JJ	.
=6	=6	=6	=6	=6
4BBB/ 4BB	8r	.	8cc#\	.
.	8B/ 8d 8f#	.	4dd^<\	.
*	*tremolo	*	*	*
4r	8B/ 8d 8f#L	.	.	.
.	8B/ 8d 8f#	.	16ddd\LL	.
.	.	.	16ccc#\JJ	.
4r	8B/ 8d 8f#	.	16bb\LL	.
.	.	.	16aa\	.
.	8B/ 8d 8f#J	.	16gg\	.
*	*Xtremolo	*	*	*
.	.	.	16ff#\JJ	.
!LO:LB:g=original	!LO:LB:g=original	!	!	!
=7	=7	=7	=7	=7
4GGG/ 4GG	8r	.	8ee\L	.
.	8B/ 8e 8g	.	16bb\L	.
.	.	.	16aa#X\JJ	.
*	*tremolo	*	*	*
4r	8B/ 8e 8gL	.	16ccc#\LL	.
.	.	.	16bb\	.
.	8B/ 8e 8g	.	16aan\	.
.	.	.	16gg\JJ	.
4r	8B/ 8e 8g	.	16ff#\LL	.
.	.	.	16ee\	.
.	8B/ 8e 8gJ	.	16dd\	.
*	*Xtremolo	*	*	*
.	.	.	16cc#\JJ	.
=8	=8	=8	=8	=8
4AAA/ 4AA	8r	.	16dd\LL	.
.	.	.	16ee\	.
.	8A/L 8e 8g	.	16ff#\	.
.	.	.	16gg\JJ	.
!	!	!	!LO:TX:t=P:problem:mixed beam	!
4r	8A/ 8e 8g	.	16aa\LL	.
.	.	.	16a/	.
.	8A/J 8e 8g	.	16b/	.
.	.	.	16cc#/JJ	.
4DD\ 4D	8A/L 8d 8f#	.	8dd\	.
.	8a/J	.	8r	.
=9	=9	=9	=9	=9
8D\L 8d	8cc#/	.	8r	p
8d>\J 8f#>	4dd^>/	.	8A/ 8f#	.
*2\right	*	*	*	*
*tremolo	*	*	*tremolo	*
8d>\ 8f#>L	.	.	8A/ 8f#L	.
8d>\ 8f#>	16bb/LL	.	8A/ 8f#	.
.	16aa/JJ	.	.	.
8d>\ 8f#>	16gg/LL	.	8A/ 8f#	.
.	16ff#/	.	.	.
8d>\ 8f#>J	16ee/	.	8A/ 8f#J	.
*Xtremolo	*	*	*Xtremolo	*
.	16ff#/JJ	.	.	.
!	!	!	!LO:LB:g=original	!
=10	=10	=10	=10	=10
8D\L 8d	8cc#/	.	8r	.
8d>\J 8f#>	4dd^>/	.	8A/ 8f#	.
*tremolo	*	*	*tremolo	*
8d>\ 8f#>L	.	.	8A/ 8f#L	.
8d>\ 8f#>	16ddd/LL	.	8A/ 8f#	.
.	16ccc#/JJ	.	.	.
8d>\ 8f#>	16bb/LL	.	8A/ 8f#	.
.	16aa/	.	.	.
8d>\ 8f#>J	16gg/	.	8A/ 8f#J	.
*Xtremolo	*	*	*Xtremolo	*
.	16ff#/JJ	.	.	.
=11	=11	=11	=11	=11
8G\L	8ee/	.	8r	.
8B>\J 8e>	4bb^>/	.	8G/ 8e	.
*tremolo	*	*	*tremolo	*
8B>\ 8e>L	.	.	8G/ 8eL	.
8B>\ 8e>	16aa/LL	.	8G/ 8e	.
.	16gg/JJ	.	.	.
8B>\ 8e>	16ff#/LL	.	8G/ 8e	.
.	16ee/	.	.	.
8B>\ 8e>J	16gg/	.	8G/ 8eJ	.
*Xtremolo	*	*	*Xtremolo	*
.	16ee/JJ	.	.	.
=12	=12	=12	=12	=12
8A\L	16dd/LL	.	8A/L 8e	.
.	16cc#/	.	.	.
8c#>\ 8e>	16ff#/	.	8a/	.
.	16ee/JJ	.	.	.
8c#>\ 8e>	16dd/LL	.	8a/	.
.	16cc#/	.	.	.
8c#>\J 8e>	16b/	.	8a/J	.
.	16a/JJ	.	.	.
8c#>\ 8e>	16aa/LL	.	8a/	.
.	16gg#X/	.	.	.
8r	16ggn/	.	8r	.
.	16ee/JJ	.	.	.
!LO:LB:g=original	!LO:LB:g=original	!	!	!
=13	=13	=13	=13	=13
8D\L 8d	8cc#/	.	8r	.
8d>\J 8f#>	4dd^>/	.	8A/ 8f#	.
*tremolo	*	*	*tremolo	*
8d>\ 8f#>L	.	.	8A/ 8f#L	.
8d>\ 8f#>	16bb/LL	.	8A/ 8f#	.
.	16aa/JJ	.	.	.
8d>\ 8f#>	16gg/LL	.	8A/ 8f#	.
.	16ff#/	.	.	.
8d>\ 8f#>J	16ee/	.	8A/ 8f#J	.
*Xtremolo	*	*	*Xtremolo	*
.	16ff#/JJ	.	.	.
=14	=14	=14	=14	=14
8B\L	8cc#/	.	8r	.
8d>\J 8f#>	4dd^>/	.	8B/ 8d	.
*tremolo	*	*	*tremolo	*
8d>\ 8f#>L	.	.	8B/ 8dL	.
8d>\ 8f#>	16ddd/LL	.	8B/ 8d	.
.	16ccc#/JJ	.	.	.
8d>\ 8f#>	16bb/LL	.	8B/ 8d	.
.	16aa/	.	.	.
8d>\ 8f#>J	16gg/	.	8B/ 8dJ	.
*Xtremolo	*	*	*Xtremolo	*
.	16ff#/JJ	.	.	.
=15	=15	=15	=15	=15
8G\L	8ee/L	.	8r	.
8B>\ 8e>	16bb/L	.	8G/L 8e	.
.	16aa#X/JJ	.	.	.
8B>\ 8e>	16ccc#/LL	.	8G/ 8e	.
.	16bb/	.	.	.
8B>\J 8e>	16aan/	.	8G/J 8e	.
.	16gg/JJ	.	.	.
8A\L	16ff#/LL	.	8A/L 8g	.
.	16ee/	.	.	.
8e>\J 8g>	16dd/	.	8A/J 8g	.
.	16cc#/JJ	.	.	.
!	!	!	!LO:LB:g=original	!
=16	=16	=16	=16	=16
8d>\L 8f#>	16dd/LL	.	8A/L 8f#	.
.	16ee/	.	.	.
8d>\ 8f#>	16ff#/	.	8f#/	.
.	16gg/JJ	.	.	.
8A\ 8e> 8g>	16aa/LL	.	8g/	.
.	16a/	.	.	.
8A\J 8e> 8g>	16b/	.	8g/J	.
.	16cc#/JJ	.	.	.
8d>\ 8f#>	8dd/	.	8f#/L	.
8r	8r	.	8a/J	.
=17	=17	=17	=17	=17
4AAA/ 4AA	8r	.	8dd#X\	.
.	8A/ 8c# 8e 8g	.	4ee^<\	.
*	*tremolo	*	*	*
4r	8A/ 8c# 8e 8gL	.	.	.
.	8A/ 8c# 8e 8g	.	16ff#\LL	.
.	.	.	16ee\JJ	.
4r	8A/ 8c# 8e 8g	.	16ddn\LL	.
.	.	.	16cc#\	.
.	8A/ 8c# 8e 8gJ	.	16b\	.
*	*Xtremolo	*	*	*
.	.	.	16a\JJ	.
=18	=18	=18	=18	=18
4AAA/ 4AA	8r	.	8gg#X\	.
.	8A/ 8d 8f#	.	4aa^<\	.
*	*tremolo	*	*	*
4r	8A/ 8d 8f#L	.	.	.
.	8A/ 8d 8f#	.	16bb\LL	.
.	.	.	16aa\JJ	.
4r	8A/ 8d 8f#	.	16ggn\LL	.
.	.	.	16ff#\	.
.	8A/ 8d 8f#J	.	16ee\	.
*	*Xtremolo	*	*	*
.	.	.	16dd\JJ	.
!LO:LB:g=original	!LO:LB:g=original	!	!	!
=19	=19	=19	=19	=19
4AAA/ 4AA	8r	.	8ccc#\	.
.	8B/ 8d 8e 8g#X	.	4ddd^<\	.
*	*tremolo	*	*	*
4r	8B/ 8d 8e 8g#L	.	.	.
.	8B/ 8d 8e 8g#	.	16ccc#\LL	.
.	.	.	16bb\JJ	.
4r	8B/ 8d 8e 8g#	.	16aa\LL	.
.	.	.	16gg#X\	.
.	8B/ 8d 8e 8g#J	.	16ff#\	.
*	*Xtremolo	*	*	*
.	.	.	16gg#\JJ	.
=20	=20	=20	=20	=20
2AAA/ 2AA	8c#/L 8e 8a	.	16aa\LL	.
.	.	.	16bb\	.
.	8c#/ 8e 8a	.	16ccc#\	.
.	.	.	16ddd\JJ	.
.	8d/ 8e 8g#X 8b	.	16eee\LL	.
.	.	.	16ee\	.
.	8d/J 8e 8g# 8b	.	16ff#\	.
.	.	.	16gg#X\JJ	.
4r	8c#/L 8e 8a	.	8aa\	.
.	8a/J	.	8r	.
!	!	!	!LO:LB:g=original	!
=21	=21	=21	=21	=21
*tremolo	*	*	*	*
8A\ 8e> 8g>L	8dd#X^>/	.	8r	.
8A\ 8e> 8g>	4ee^>/	.	8A/ 8e	.
*	*	*	*tremolo	*
8A\ 8e> 8g>	.	.	8A/ 8eL	.
8A\ 8e> 8g>	16ff#/LL	.	8A/ 8e	.
.	16ee/JJ	.	.	.
8A\ 8e> 8g>	16ddn/LL	.	8A/ 8e	.
.	16cc#/	.	.	.
8A\ 8e> 8g>J	16b/	.	8A/ 8eJ	.
*Xtremolo	*	*	*Xtremolo	*
.	16a/JJ	.	.	.
=22	=22	=22	=22	=22
*tremolo	*	*	*	*
8A\ 8d> 8f#>L	8gg#X/	.	8r	.
8A\ 8d> 8f#>	4aa/	.	8A/ 8f#	.
*	*	*	*tremolo	*
8A\ 8d> 8f#>	.	.	8A/ 8f#L	.
8A\ 8d> 8f#>	16bb/LL	.	8A/ 8f#	.
.	16aa/JJ	.	.	.
8A\ 8d> 8f#>	16ggn/LL	.	8A/ 8f#	.
.	16ff#/	.	.	.
8A\ 8d> 8f#>J	16ee/	.	8A/ 8f#J	.
*Xtremolo	*	*	*Xtremolo	*
.	16dd/JJ	.	.	.
=23	=23	=23	=23	=23
*tremolo	*	*	*	*
8A\ 8d> 8e> 8g#>XL	8ccc#\	.	8r	.
8A\ 8d> 8e> 8g#>X	4ddd\	.	8B/ 8d	.
*	*	*	*tremolo	*
8A\ 8d> 8>e 8g#>X	.	.	8B/ 8dL	.
8A\ 8d> 8e> 8g#>X	16eee\LL	.	8B/ 8d	.
.	16ddd\JJ	.	.	.
8A\ 8d> 8e> 8g#>X	16ccc#\LL	.	8B/ 8d	.
.	16bb\	.	.	.
8A\ 8d> 8e> 8g#>XJ	16aa\	.	8B/ 8dJ	.
*Xtremolo	*	*	*Xtremolo	*
.	16gg#X\JJ	.	.	.
=24	=24	=24	=24	=24
8A\ 8c#> 8e> 8g>	16aa\LL	.	4c#/	.
.	16eee\	.	.	.
8r	16ddd\	rf >	.	.
.	16ccc#\JJ	.	.	.
2A\ 2B> 2d> 2g#>X	16bb\LL	]	4r	.
.	16aa\	.	.	.
.	(16gg#X\	.	.	.
.	16bb\JJ	.	.	.
.	16eee\LL	.	(4b^<\	.
.	16ddd#X\	.	.	.
.	16dddn\	.	.	.
.	16bb\JJ)	.	.	.
!LO:LB:g=original	!LO:LB:g=original	!	!	!
=25	=25	=25	=25	=25
8A\ 8c#> 8e> 8a>	16aa\LL	.	4a\)	.
.	16eee\	.	.	.
8r	16ddd\	rf >	.	.
.	16ccc#\JJ	.	.	.
2A\ 2B> 2e> 2g#>X	16bb\LL	]	4r	.
.	16aa\	.	.	.
.	16gg#X\	.	.	.
.	16bb\JJ	.	.	.
.	16eee\LL	.	(4b^<\	.
.	16ddd#X\	.	.	.
.	16dddn\	.	.	.
.	16bb\JJ	.	.	.
=26	=26	=26	=26	=26
4A\ 4c#> 4e> 4a>	16aa\LL	.	4a\)	.
.	(16eee\	.	.	.
.	16ddd\	.	.	.
.	16ccc#\JJ	>	.	.
4r	16bb\LL	.	4r	.
.	16aa\	.	.	.
.	16gg#X\	.	.	.
.	16ggn\JJ	.	.	.
4r	16ff#\LL	.	4r	.
.	16ee\	.	.	.
.	16dd\	.	.	.
.	16cc#\JJ	]]	.	.
=27	=27	=27	=27	=27
!	!	!	!LO:TX:a:t=1.	!
2.r	16b\LL	.	2.r	.
.	16a\	.	.	.
.	16g#X\	.	.	.
.	16a\JJ	.	.	.
.	16cc#\LL	.	.	.
.	16ee\	.	.	.
.	16bb\	.	.	.
.	16aa\JJ	.	.	.
.	16gg#X\LL	.	.	.
.	16aa\	.	.	.
.	16ggn\	.	.	.
.	16ee\JJ)	.	.	.
!	!	!	!LO:LB:g=original	!
=28	=28	=28	=28	=28
8D\L 8d	8cc#/	.	8r	.
8d>\J 8f#>	4dd^>/	.	8A/ 8f#	.
*tremolo	*	*	*tremolo	*
8d>\ 8f#>L	.	.	8A/ 8f#L	.
8d>\ 8f#>	16bb/LL	.	8A/ 8f#	.
.	16aa/JJ	.	.	.
8d>\ 8f#>	16gg/LL	.	8A/ 8f#	.
.	16ff#/	.	.	.
8d>\ 8f#>J	16ee/	.	8A/ 8f#J	.
*Xtremolo	*	*	*Xtremolo	*
.	16ff#/JJ	.	.	.
=29	=29	=29	=29	=29
8D\L 8d	8cc#/	.	8r	.
8d>\J 8f#>	4dd^>/	.	8A/ 8f#	.
*tremolo	*	*	*tremolo	*
8d>\ 8f#>L	.	.	8A/ 8f#L	.
8d>\ 8f#>	16ddd/LL	.	8A/ 8f#	.
.	16ccc#/JJ	.	.	.
8d>\ 8f#>	16bb/LL	.	8A/ 8f#	.
.	16aa/	.	.	.
8d>\ 8f#>J	16gg/	.	8A/ 8f#J	.
*Xtremolo	*	*	*Xtremolo	*
.	16ff#/JJ	.	.	.
!LO:LB:g=original	!LO:LB:g=original	!	!	!
=30	=30	=30	=30	=30
8G\L	8ee^>\	.	8r	.
8B\J 8e>	4bb^>\	.	8G/ 8e	.
*tremolo	*	*	*tremolo	*
8B\ 8e>L	.	.	8G/ 8eL	.
8B\ 8e>	16aa\LL	.	8G/ 8e	.
.	16gg\JJ	.	.	.
8B\ 8e>	16ff#\LL	.	8G/ 8e	.
.	16ee\	.	.	.
8B\ 8e>J	16gg\	.	8G/ 8eJ	.
*Xtremolo	*	*	*Xtremolo	*
.	16ee\JJ	.	.	.
=31	=31	=31	=31	=31
8A\L	16dd/LL	.	8A/L 8e	.
.	16cc#/	.	.	.
8c#\ 8e>	16ff#/	.	8a/	.
.	16ee/JJ	.	.	.
8c#\ 8e>	16dd/LL	.	8a/	.
.	16cc#/	.	.	.
8c#\J 8e>	16b/	.	8a/J	.
.	16a/JJ	.	.	.
8c#\ 8e>	16aa/LL	.	8a/	.
.	16gg#X/	.	.	.
8r	16ggn/	.	8r	.
.	16ee/JJ	.	.	.
=32	=32	=32	=32	=32
8D\L 8d	8cc#/	.	8r	.
8d>\J 8f#>	4dd^>/	.	8A/ 8f#	.
*tremolo	*	*	*tremolo	*
8d>\ 8f#>L	.	.	8A/ 8f#L	.
8d>\ 8f#>	16bb/LL	.	8A/ 8f#	.
.	16aa/JJ	.	.	.
8d>\ 8f#>	16gg/LL	.	8A/ 8f#	.
.	16ff#/	.	.	.
8d>\ 8f#>J	16ee/	.	8A/ 8f#J	.
*Xtremolo	*	*	*Xtremolo	*
.	16ff#/JJ	.	.	.
=33	=33	=33	=33	=33
8B\L	8cc#/	.	8r	.
8d>\J 8f#>	4dd^>/	.	8B/ 8d	.
*tremolo	*	*	*tremolo	*
8d>\ 8f#>L	.	.	8B/ 8dL	.
8d>\ 8f#>	16ddd/LL	.	8B/ 8d	.
.	16ccc#/JJ	.	.	.
8d>\ 8f#>	16bb/LL	.	8B/ 8d	.
.	16aa/	.	.	.
8d>\ 8f#>J	16gg/	.	8B/ 8dJ	.
*Xtremolo	*	*	*Xtremolo	*
.	16ff#/JJ	.	.	.
=34	=34	=34	=34	=34
8G\L	8ee/L	.	8r	.
8B>\ 8e>	16bb/L	.	8G/L 8e	.
.	16aa#X/JJ	.	.	.
8B>\ 8e>	16ccc#/LL	.	8G/ 8e	.
.	16bb/	.	.	.
8B>\J 8e>	16aan/	<	8G/J 8e	.
.	16gg/JJ	.	.	.
8A\L	16ff#/LL	.	8A/L 8g	.
.	16ee/	.	.	.
8e>\J 8g>	16dd/	.	8A/J 8g	.
.	16cc#/JJ	[[	.	.
!LO:LB:g=original	!LO:LB:g=original	!	!LO:LB:g=original	!
=35	=35	=35	=35	=35
!LO:TX:a:t=P:problem:pominięty fragment	!LO:TX:a:t=P:problem:pominięty fragment	!	!	!
2.ryy	2.ryy	.	4A/ 4f#	.
.	.	.	4r	.
.	.	.	4r	.
=36	=36	=36	=36	=36
*	*	*	*2\right	*
*	*	*	*^	*
2.ryy	2.ryy	.	4r	4ryy	.
.	.	.	4.g/	[2A\	rf >
.	.	.	8e/	.	.
=37	=37	=37	=37	=37	=37
2.ryy	2.ryy	.	4f#/	4A\]	]
.	.	.	4r	2ryy	.
.	.	.	4r	.	.
=38	=38	=38	=38	=38	=38
2.ryy	2.ryy	.	4r	4ryy	.
.	.	.	4.g/	[2A\	rf >
.	.	.	8e/	.	.
=39	=39	=39	=39	=39	=39
2.ryy	2.ryy	.	4f#/	4A\]	]
.	.	.	4g'/	2ryy	.
.	.	.	4e'/	.	.
*	*	*	*v	*v	*
=40	=40	=40	=40	=40
2.ryy	2.ryy	.	4f#/	.
.	.	.	4r	.
.	.	.	4r	.
=41	=41	=41	=41	=41
*	*	*	*^	*
2.ryy	2.ryy	.	4r	4ryy	.
.	.	.	4.g/	[2A\	rf
.	.	.	8e/	.	.
!	!	!	!LO:LB:g=original	!	!
=42	=42	=42	=42	=42	=42
2.ryy	2.ryy	.	4f#/	4A\]	.
.	.	.	4r	2ryy	.
.	.	.	4r	.	.
=43	=43	=43	=43	=43	=43
2.ryy	2.ryy	.	4r	4ryy	.
.	.	.	4.g/	[2A\	rf
.	.	.	8e/	.	.
=44	=44	=44	=44	=44	=44
2.ryy	2.ryy	.	4f#/	4A\]	.
.	.	.	4r	2ryy	.
.	.	.	4r	.	.
*	*	*	*v	*v	*
=45	=45	=45	=45	=45
2.ryy	2.ryy	.	4r	.
.	.	.	4r	.
.	.	.	4r;	.
=46	=46	=46	=46	=46
!	!	!	!LO:TX:a:t=8	!
!	!	!	!LO:N:vis=00	!
2.ryy	2.ryy	.	0.r	.
=47	=47	=47	=47	=47
2.ryy	2.ryy	.	.	.
=48	=48	=48	=48	=48
2.ryy	2.ryy	.	.	.
=49	=49	=49	=49	=49
2.ryy	2.ryy	.	.	.
=50	=50	=50	=50	=50
!	!	!	!LO:N:vis=00	!
2.ryy	2.ryy	.	0.r	.
=51	=51	=51	=51	=51
2.ryy	2.ryy	.	.	.
=52	=52	=52	=52	=52
2.ryy	2.ryy	.	.	.
=53	=53	=53	=53	=53
2.ryy	2.ryy	.	.	.
=54	=54	=54	=54	=54
2.ryy	2.ryy	.	4r	.
.	.	.	4r	.
.	.	.	8r	.
.	.	.	8a/	.
=55	=55	=55	=55	=55
!	!	!	!LO:TX:a:i:t=Dol	!
2.ryy	2.ryy	.	8ee#X\	.
.	.	.	4ff#^<\	.
.	.	.	16een\LL	.
.	.	.	16dd\JJ	.
.	.	.	16cc#\LL	.
.	.	.	16dd\	.
.	.	.	16bb\	.
.	.	.	16aa\JJ	.
!	!	!	!LO:LB:g=original	!
=56	=56	=56	=56	=56
2.ryy	2.ryy	.	8.aa\L	.
.	.	.	16gg\Jk	.
.	.	.	4ee\	.
.	.	.	8.r	.
.	.	.	16gg\	.
=57	=57	=57	=57	=57
2.ryy	2.ryy	.	16ff#\LL	.
.	.	.	16gg\	.
.	.	.	16aa\	.
.	.	.	16bb\JJ	.
.	.	.	16aa\LL	.
.	.	.	16bb\	.
.	.	.	16ccc#\	.
.	.	.	16ddd\JJ	.
.	.	.	16aa#X\LL	.
.	.	.	16bb\	.
.	.	.	16gg\	.
.	.	.	16ee\JJ	.
=58	=58	=58	=58	=58
2.ryy	2.ryy	.	16dd\LL	.
.	.	.	16cc#\	.
.	.	.	16ee\	.
.	.	.	16dd\JJ	.
.	.	.	4a\	.
.	.	.	4r	.
=59	=59	=59	=59	=59
2.ryy	2.ryy	.	8r	.
.	.	.	4a/	.
.	.	.	4f#/	.
.	.	.	8d/	.
=60	=60	=60	=60	=60
2.ryy	2.ryy	.	8r	.
.	.	.	4b/	.
.	.	.	4g#X/	.
.	.	.	8d/	.
=61	=61	=61	=61	=61
2.ryy	2.ryy	.	8r	.
.	.	.	4c#/	.
.	.	.	4e/	.
.	.	.	8a/	.
!	!	!	!LO:LB:g=original	!
=62	=62	=62	=62	=62
2.ryy	2.ryy	.	8r	.
.	.	.	4d/	.
.	.	.	4f#/	.
.	.	.	8a/	.
=63	=63	=63	=63	=63
2.ryy	2.ryy	.	8r	.
.	.	.	4f#/	.
.	.	.	4b/	.
.	.	.	8a/	.
=64	=64	=64	=64	=64
2.ryy	2.ryy	.	4g#X/	.
.	.	.	[2e/	.
=65	=65	=65	=65	=65
2.ryy	2.ryy	.	2.e/]	.
=66	=66	=66	=66	=66
2.ryy	2.ryy	.	[2.e/	.
=67	=67	=67	=67	=67
2.ryy	2.ryy	.	2.e/_	.
=68	=68	=68	=68	=68
2.ryy	2.ryy	.	4e/]	.
.	.	.	4r	.
.	.	.	4r	.
=69	=69	=69	=69	=69
!	!	!	!LO:TX:a:t=10	!
!	!	!	!LO:N:vis=00	!
2.ryy	2.ryy	.	0.r	.
=70	=70	=70	=70	=70
2.ryy	2.ryy	.	.	.
=71	=71	=71	=71	=71
2.ryy	2.ryy	.	.	.
=72	=72	=72	=72	=72
2.ryy	2.ryy	.	.	.
=73	=73	=73	=73	=73
!	!	!	!LO:N:vis=00	!
2.ryy	2.ryy	.	0.r	.
=74	=74	=74	=74	=74
2.ryy	2.ryy	.	.	.
=75	=75	=75	=75	=75
2.ryy	2.ryy	.	.	.
=76	=76	=76	=76	=76
2.ryy	2.ryy	.	.	.
=77	=77	=77	=77	=77
!	!	!	!LO:N:vis=0	!
2.ryy	2.ryy	.	1.r	.
=78	=78	=78	=78	=78
2.ryy	2.ryy	.	.	.
=79	=79	=79	=79	=79
!	!	!	!LO:TX:a:i:t=Dol.	!
2.ryy	2.ryy	.	(8.c#/L	.
.	.	.	16d/Jk	.
.	.	.	4e/	.
.	.	.	4f#/)	.
!	!	!	!LO:LB:g=original	!
=80	=80	=80	=80	=80
2.ryy	2.ryy	.	4e/	.
.	.	.	(8.a/L	.
.	.	.	16g#X/K	.
.	.	.	8.a/	.
.	.	.	16f#/Jk)	.
=81	=81	=81	=81	=81
2.ryy	2.ryy	.	2e/	.
.	.	.	4f#/	.
=82	=82	=82	=82	=82
2.ryy	2.ryy	.	(2e/	.
.	.	.	4d/)	.
=83	=83	=83	=83	=83
2.ryy	2.ryy	.	8.dd\L	.
.	.	.	16cc#\Jk	.
.	.	.	4b\	.
.	.	.	4a\	.
=84	=84	=84	=84	=84
2.ryy	2.ryy	.	8.g#X/L	.
.	.	.	16f#/Jk	.
.	.	.	4e/	.
.	.	.	(4e/	.
=85	=85	=85	=85	=85
2.ryy	2.ryy	.	8.d/L)	.
.	.	.	16f#/Jk	.
.	.	.	4eT/	.
.	.	.	8dd\L	.
.	.	.	8b\J	.
=86	=86	=86	=86	=86
2.ryy	2.ryy	.	4a\	.
.	.	.	4c#/ 4e	.
.	.	.	4c#/ 4e	.
=87	=87	=87	=87	=87
2.ryy	2.ryy	.	4c#/ 4e	.
.	.	.	4c#/ 4e	.
.	.	.	4c#/ 4e	.
!	!	!	!LO:LB:g=original	!
=88	=88	=88	=88	=88
2.ryy	2.ryy	.	2.d/ 2.e	.
=89	=89	=89	=89	=89
2.ryy	2.ryy	.	(2.B/ 2.e	.
=90	=90	=90	=90	=90
2.ryy	2.ryy	.	4c#/) 4e	.
.	.	.	4c#/ 4e	.
.	.	.	4c#/ 4e	.
=91	=91	=91	=91	=91
2.ryy	2.ryy	.	4c#/ 4e	.
.	.	.	4c#/ 4e	.
.	.	.	4c#/ 4e	.
=92	=92	=92	=92	=92
2.ryy	2.ryy	.	2.d/ 2.e	.
=93	=93	=93	=93	=93
2.ryy	2.ryy	.	(2.B/ 2.e	.
=94	=94	=94	=94	=94
2.ryy	2.ryy	.	4c#/) 4e	.
.	.	.	4c#/ 4e	.
.	.	.	4c#/ 4e	.
=95	=95	=95	=95	=95
2.ryy	2.ryy	.	[2.cn/ 2.e	.
=96	=96	=96	=96	=96
!	!	!	!	!LO:HP:a:t=crescendo
2.ryy	2.ryy	.	2.c/] 2.e	<
!	!	!	!LO:PB:g=original	!
=97	=97	=97	=97	=97
2.ryy	2.ryy	.	[2.G/ 2.e	f
=98	=98	=98	=98	=98
2.ryy	2.ryy	.	2.G/] 2.e	.
=99	=99	=99	=99	=99
2.ryy	2.ryy	.	2.G/ 2.e	.
=100	=100	=100	=100	=100
2.ryy	2.ryy	.	4A/ 4f#	.
.	.	.	4r	.
.	.	.	4r	.
=101	=101	=101	=101	=101
!	!	!	!LO:TX:a:t=3	!
!	!	!	!LO:N:vis=0	!
2.ryy	2.ryy	.	1.r	.
=102	=102	=102	=102	=102
2.ryy	2.ryy	.	.	.
=103	=103	=103	=103	=103
!	!	!	!LO:N:vis=1	!
2.ryy	2.ryy	.	2.r	.
=104	=104	=104	=104	=104
2.ryy	2.ryy	.	4r	rf
.	.	.	[2d/ 2b-X	.
=105	=105	=105	=105	=105
2.ryy	2.ryy	.	4d/] 4b-yX	.
.	.	.	2d^/ 2b-X	.
=106	=106	=106	=106	=106
2.ryy	2.ryy	.	4r	.
.	.	.	[2e-X^/ 2a	rf
=107	=107	=107	=107	=107
2.ryy	2.ryy	.	4e-/] 4a	.
.	.	.	2e-X^/ 2a	.
=108	=108	=108	=108	=108
2.ryy	2.ryy	.	4en\ 4cc#X|	.
.	.	.	4r	.
.	.	.	4r	.
!	!	!	!LO:LB:g=original	!
=109	=109	=109	=109	=109
2.ryy	2.ryy	.	4e\ 4cc#|	.
.	.	.	4r	.
.	.	.	4r	.
=110	=110	=110	=110	=110
2.ryy	2.ryy	.	4e\ 4cc#|	.
.	.	.	4r	.
.	.	.	4r	.
=111	=111	=111	=111	=111
!	!	!	!LO:TX:a:t=1	!
2.ryy	2.ryy	.	2.r	.
=112	=112	=112	=112	=112
2.ryy	2.ryy	.	4r	ff
.	.	.	4.g#X/	.
.	.	.	(8g#/	.
=113	=113	=113	=113	=113
2.ryy	2.ryy	.	8a/)	.
.	.	.	8r	.
.	.	.	4.a#X^/	.
.	.	.	8a#/	.
=114	=114	=114	=114	=114
2.ryy	2.ryy	.	4b\	.
.	.	.	4r	.
.	.	.	(4a#X\	.
=115	=115	=115	=115	=115
2.ryy	2.ryy	.	4b\)	.
.	.	.	4r	.
.	.	.	(4a#X\	.
=116	=116	=116	=116	=116
2.ryy	2.ryy	.	4b\)	.
.	.	.	4r	.
.	.	.	4r	.
!	!	!	!LO:LB:g=original	!
=117	=117	=117	=117	=117
!	!	!	!LO:TX:a:t=5	!
!	!	!	!LO:N:vis=00	!
2.ryy	2.ryy	.	0.r	.
=118	=118	=118	=118	=118
2.ryy	2.ryy	.	.	.
=119	=119	=119	=119	=119
2.ryy	2.ryy	.	.	.
=120	=120	=120	=120	=120
2.ryy	2.ryy	.	.	.
=121	=121	=121	=121	=121
!	!	!	!LO:N:vis=1	!
2.ryy	2.ryy	.	2.r	.
=122	=122	=122	=122	=122
2.ryy	2.ryy	.	2.gg#Xt\	<[
=123	=123	=123	=123	=123
2.ryy	2.ryy	.	4aa\	.
.	.	.	8r	.
.	.	.	8aa\L	.
.	.	.	8aa\	.
.	.	.	8aa\J	.
=124	=124	=124	=124	=124
2.ryy	2.ryy	.	8aa#X\	.
.	.	.	4bb^<\	.
.	.	.	8ddd\L	.
.	.	.	8gg#X\	.
.	.	.	8bb\J	.
=125	=125	=125	=125	=125
2.ryy	2.ryy	.	4aan\	.
.	.	.	8r	.
.	.	.	8aa'\L	.
.	.	.	8aa'\	.
.	.	.	8aa'\J	.
=126	=126	=126	=126	=126
2.ryy	2.ryy	.	8aa#X\	.
.	.	.	4bb^<\	.
.	.	.	8ddd\L	.
.	.	.	8gg#X\	.
.	.	.	8bb\J	.
=127	=127	=127	=127	=127
2.ryy	2.ryy	.	4aan\	.
.	.	.	4r	.
.	.	.	4r	.
!	!	!	!LO:LB:g=original	!
=128	=128	=128	=128	=128
!	!	!	!LO:TX:a:t=3	!
!	!	!	!LO:N:vis=0	!
2.ryy	2.ryy	.	1.r	.
=129	=129	=129	=129	=129
2.ryy	2.ryy	.	.	.
=130	=130	=130	=130	=130
!	!	!	!LO:N:vis=1	!
2.ryy	2.ryy	.	2.r	.
=131	=131	=131	=131	=131
2.ryy	2.ryy	.	4r	.
.	.	.	8r	.
.	.	.	8dd\L	.
.	.	.	8dd\	.
.	.	.	8dd\J	.
=132	=132	=132	=132	=132
2.ryy	2.ryy	.	(8.ffn^<\L	.
.	.	.	16ee\Jk	.
.	.	.	4dd\)	.
.	.	.	4r	.
=133	=133	=133	=133	=133
2.ryy	2.ryy	.	4r	.
.	.	.	8r	.
.	.	.	8dd\L	.
.	.	.	8dd\	.
.	.	.	8dd\J	.
=134	=134	=134	=134	=134
2.ryy	2.ryy	.	(8.ffn^<\L	.
.	.	.	16ee\Jk	.
!	!	!	!LO:TX:t=P:problem:mixed beam	!
.	.	.	8dd\L)	.
.	.	.	8d/	.
.	.	.	8d/	.
.	.	.	8d/J	.
=135	=135	=135	=135	=135
2.ryy	2.ryy	.	4c#X/	.
.	.	.	4r	.
.	.	.	4r	.
=136	=136	=136	=136	=136
!	!	!	!LO:TX:a:t=2	!
!	!	!	!LO:N:vis=0	!
2.ryy	2.ryy	.	1.r	.
=137	=137	=137	=137	=137
2.ryy	2.ryy	.	.	.
!	!	!	!LO:LB:g=original	!
=138	=138	=138	=138	=138
2.ryy	2.ryy	.	4r	.
.	.	.	8r	.
.	.	.	8cc#'\L	<
.	.	.	8dd'\	.
.	.	.	8ee'\J	[[
=139	=139	=139	=139	=139
2.ryy	2.ryy	.	(8ffn\L	>
.	.	.	8ee\)	.
.	.	.	8dd'\	]
.	.	.	8ccn'\	.
.	.	.	8b-X'\	.
.	.	.	8a'\J	.
=140	=140	=140	=140	=140
2.ryy	2.ryy	.	8g#X/	.
.	.	.	(8g#^/L	.
.	.	.	8g#/)	.
.	.	.	(8d/	.
.	.	.	8e/	.
.	.	.	8d/J)	.
=141	=141	=141	=141	=141
2.ryy	2.ryy	.	4c#X/	.
.	.	.	[2A/ 2g	.
=142	=142	=142	=142	=142
2.ryy	2.ryy	.	4A/] 4g	.
.	.	.	[2A/ 2g	.
=143	=143	=143	=143	=143
2.ryy	2.ryy	.	4A/] 4g	.
.	.	.	4A/ 4e 4cc#	.
.	.	.	4r;	.
!	!	!	!LO:LB:g=original	!
=144	=144	=144	=144	=144
!	!	!	!	!LO:DY:t=p.
2.ryy	2.ryy	.	8r	p
.	.	.	8A/ 8f#	.
*	*	*	*tremolo	*
.	.	.	8A/ 8f#L	.
.	.	.	8A/ 8f#	.
.	.	.	8A/ 8f#	.
.	.	.	8A/ 8f#J	.
*	*	*	*Xtremolo	*
=145	=145	=145	=145	=145
2.ryy	2.ryy	.	8r	.
.	.	.	8A/ 8f#	.
*	*	*	*tremolo	*
.	.	.	8A/ 8f#L	.
.	.	.	8A/ 8f#	.
.	.	.	8A/ 8f#	.
.	.	.	8A/ 8f#J	.
*	*	*	*Xtremolo	*
=146	=146	=146	=146	=146
8G\L	8ee\	.	8r	.
8B>\J 8e>	4bb\	.	8G/ 8e	.
*tremolo	*	*	*tremolo	*
8B>\ 8e>L	.	.	8G/ 8eL	.
8B>\ 8e>	16aa\LL	.	8G/ 8e	.
.	16gg\JJ	.	.	.
8B>\ 8e>	16ff#\LL	.	8G/ 8e	.
.	16ee\	.	.	.
8B>\ 8e>J	16gg\	.	8G/ 8eJ	.
*Xtremolo	*	*	*Xtremolo	*
.	16ee\JJ	.	.	.
=147	=147	=147	=147	=147
8A>\L	16dd/LL	.	8A/L 8e	.
.	16cc#/	.	.	.
8c#>\ 8e>	16ff#/	.	8a'/	.
.	16ee/JJ	.	.	.
8c#>\ 8e>	16dd/LL	.	8a'/	.
.	16cc#/	.	.	.
8c#>\J 8e>	16b/	.	8a'/J	.
.	16a/JJ	.	.	.
8c#>\ 8e>	16aa\LL	.	8a'/	.
.	16gg#X\	.	.	.
8r	16ggn\	.	8r	.
.	16ee\JJ	.	.	.
=148	=148	=148	=148	=148
8D\L 8d	8cc#^>/	.	8r	.
8d>\J 8f#>	4dd^>/	.	8A/ 8f#	.
*tremolo	*	*	*tremolo	*
8d>\ 8f#>L	.	.	8A/ 8f#L	.
8d>\ 8f#>	16bb\LL	.	8A/ 8f#	.
.	16aa\JJ	.	.	.
8d>\ 8f#>	16gg\LL	.	8A/ 8f#	.
.	16ff#\	.	.	.
8d>\ 8f#>J	16ee\	.	8A/ 8f#J	.
*Xtremolo	*	*	*Xtremolo	*
.	16ff#\JJ	.	.	.
=149	=149	=149	=149	=149
8BB\L 8B	8cc#^>/	.	8r	.
8d>\J 8f#>	4dd^>/	.	8B/ 8d	.
*tremolo	*	*	*tremolo	*
8d>\ 8f#>L	.	.	8B/ 8dL	.
8d>\ 8f#>	16ddd\LL	.	8B/ 8d	.
.	16ccc#\JJ	.	.	.
8d>\ 8f#>	16bb\LL	.	8B/ 8d	.
.	16aa\	.	.	.
8d>\ 8f#>J	16gg\	.	8B/ 8dJ	.
*Xtremolo	*	*	*Xtremolo	*
.	16ff#\JJ	.	.	.
!	!	!	!LO:LB:g=original	!
=150	=150	=150	=150	=150
8G\L	8ee\L	.	8r	.
8B\ 8e>	16bb\L	.	8G/L 8e	.
.	16aa#X\JJ	.	.	.
8B\ 8e>	16ccc#\LL	.	8G/ 8e	.
.	16bb\	.	.	.
8B\J 8e>	16aan\	.	8G/ 8e	.
.	16gg\JJ	.	.	.
8A\L	16ff#/LL	.	8A/ 8e	.
.	16ee/	.	.	.
8e>\J 8g>	16dd/	.	8A/J 8e	.
.	16cc#/JJ	.	.	.
!LO:LB:g=original	!LO:LB:g=original	!	!	!
=151	=151	=151	=151	=151
8d>\L 8f#>	16dd/LL	.	8A/L 8f#	.
.	16ee/	.	.	.
8d>\ 8f#>	16ff#/	.	8f#/	.
.	16gg/JJ	.	.	.
8A\ 8e> 8g>	16aa/LL	.	8g/	.
.	16a/	.	.	.
8A\J 8e> 8g>	16b/	.	8g/	.
.	16cc#/JJ	.	.	.
8d>\ 8f#>	8dd/	.	8f#/J	.
8r	8r	.	8a/	.
=152	=152	=152	=152	=152
!	!	!LO:DY:t=p.	!	!
4AAA/ 4AA	8r	p	8dd#X^<\	.
.	8A/ 8c# 8e 8g	.	4ee^<\	.
*	*tremolo	*	*	*
4r	8A/ 8c# 8e 8gL	.	.	.
.	8A/ 8c# 8e 8g	.	16ff#\LL	.
.	.	.	16ee\JJ	.
4r	8A/ 8c# 8e 8g	.	16ddn\LL	.
.	.	.	16cc#\	.
.	8A/ 8c# 8e 8gJ	.	16b\	.
*	*Xtremolo	*	*	*
.	.	.	16a\JJ	.
=153	=153	=153	=153	=153
4AAA/ 4AA	8r	.	8gg#X^<\	.
.	8A/ 8d 8f#	.	4aa^<\	.
*	*tremolo	*	*	*
4r	8A/ 8d 8f#L	.	.	.
.	8A/ 8d 8f#	.	16bb\LL	.
.	.	.	16aa\JJ	.
4r	8A/ 8d 8f#	.	16ggn\LL	.
.	.	.	16ff#\	.
.	8A/ 8d 8f#J	.	16ee\	.
*	*Xtremolo	*	*	*
.	.	.	16dd\JJ	.
!	!	!	!LO:LB:g=original	!
=154	=154	=154	=154	=154
4AAA/ 4AA	8r	.	8ccc#^<\	.
.	8B/ 8d 8e 8g#X	.	4ddd^<\	.
*	*tremolo	*	*	*
4r	8B/ 8d 8e 8g#L	<	.	.
.	8B/ 8d 8e 8g#	.	16eee\LL	.
.	.	.	16ddd\JJ	.
4r	8B/ 8d 8e 8g#	.	16ccc#\LL	.
.	.	.	16bb\	.
.	8B/ 8d 8e 8g#J	.	16aa\	.
.	.	[[	16gg#X\JJ	.
*	*Xtremolo	*	*	*
=155	=155	=155	=155	=155
2AAA/ 2AA	8c#/L 8e 8a	.	16aa\LL	.
.	.	.	16bb\	.
.	8c#/ 8e 8a	.	16ccc#\	.
.	.	.	16ddd\JJ	.
.	8d/ 8e 8g#X 8b	>	16eee\LL	.
.	.	.	16ee\	.
.	8d/J 8e 8g# 8b	.	16ff#\	.
.	.	.	16gg#X\JJ	.
4r	8c#/L 8e 8a	.	8aa\	.
.	8a/J	]	8r	.
!LO:LB:g=original	!LO:LB:g=original	!	!	!
=156	=156	=156	=156	=156
*tremolo	*	*	*	*
!	!	!	!	!LO:DY:t=po
8A\ 8e> 8g>L	8dd#X^>/	.	8r	p
8A\ 8e> 8g>	4ee^>/	.	8A/ 8e	.
*	*	*	*tremolo	*
8A\ 8e> 8g>	.	.	8A/ 8eL	.
8A\ 8e> 8g>	16ff#/LL	.	8A/ 8e	.
.	16ee/JJ	.	.	.
8A\ 8e> 8g>	16ddn/LL	.	8A/ 8e	.
.	16cc#/	.	.	.
8A\ 8e> 8g>J	16b/	.	8A/ 8eJ	.
*Xtremolo	*	*	*Xtremolo	*
.	16a/JJ	.	.	.
=157	=157	=157	=157	=157
*tremolo	*	*	*	*
8A\ 8d> 8f#>L	8gg#X/	.	8r	.
8A\ 8d> 8f#>	4aa/	.	8A/ 8f#	.
*	*	*	*tremolo	*
8A\ 8d> 8f#>	.	.	8A/ 8f#L	.
8A\ 8d> 8f#>	16bb/LL	.	8A/ 8f#	.
.	16aa/JJ	.	.	.
8A\ 8d> 8f#>	16ggn/LL	.	8A/ 8f#	.
.	16ff#/	.	.	.
8A\ 8d> 8f#>J	16ee/	.	8A/ 8f#J	.
*Xtremolo	*	*	*Xtremolo	*
.	16dd/JJ	.	.	.
=158	=158	=158	=158	=158
*tremolo	*	*	*	*
8A\ 8B> 8e> 8g#>XL	8ccc#\	.	8r	.
8A\ 8B> 8e> 8g#>X	4ddd\	.	8B/ 8d	.
*	*	*	*tremolo	*
8A\ 8B> 8>e 8g#>X	.	.	8B/ 8dL	.
8A\ 8B> 8e> 8g#>X	16eee\LL	.	8B/ 8d	.
.	16ddd\JJ	.	.	.
8A\ 8B> 8e> 8g#>X	16ccc#\LL	.	8B/ 8d	.
.	16bb\	.	.	.
8A\ 8B> 8e> 8g#>XJ	16aa\	.	8B/ 8dJ	.
*Xtremolo	*	*	*Xtremolo	*
.	16gg#X\JJ	.	.	.
!	!	!	!LO:LB:g=original	!
=159	=159	=159	=159	=159
8A\ 8c#> 8e> 8a>	16aa\LL	rf	8c#/	.
.	16eee\	.	.	.
8r	16ddd\	.	8r	.
.	16ccc#\JJ	.	.	.
2A\ 2B 2d> 2g#>X	16bb\LL	.	4r	.
.	16aa\	>	.	.
.	16gg#X\	.	.	.
.	16bb\JJ	]	.	.
.	16eee\LL	.	(4b\	.
.	16ddd#X\	.	.	.
.	16dddn\	.	.	.
.	16bb\JJ	.	.	.
=160	=160	=160	=160	=160
8A\ 8c#> 8e> 8a>	16aa\LL	.	4cc#\)	.
.	16eee\	.	.	.
8r	16ddd\	.	.	.
.	16ccc#\JJ	.	.	.
!LO:LB:g=original	!LO:LB:g=original	!	!	!
=-	=-	=-	=-	=-
2A\ 2B 2d 2g#X	16bb\LL	.	4r	.
.	16aa\	.	.	.
.	16gg#X\	.	.	.
.	16bb\JJ	.	.	.
.	16eee\LL	.	(4b\	.
.	16ddd#X\	.	.	.
.	16dddn\	.	.	.
.	16bb\JJ	.	.	.
=161	=161	=161	=161	=161
4A\ 4c#> 4e> 4a>	16aa\LL	.	4cc#\)	.
.	(16eee\	.	.	.
.	16ddd\	.	.	.
.	16ccc#\JJ	.	.	.
4r	16bb\LL	.	4r	.
.	16aa\	.	.	.
.	16gg#X\	.	.	.
.	16ggn\JJ	.	.	.
4r	16ff#\LL	.	4r	.
.	16ee\	.	.	.
.	16dd\	.	.	.
.	16cc#\JJ	.	.	.
=162	=162	=162	=162	=162
!	!	!	!LO:TX:a:t=1.	!
2.r	16b\LL	.	2.r	.
.	16a\)	.	.	.
.	16g#X\	.	.	.
.	16a\JJ	.	.	.
.	16cc#\LL	>	.	.
.	16ee\	.	.	.
.	16bb\	.	.	.
.	16aa\JJ	.	.	.
.	16gg#X\LL	.	.	.
.	16aa\	.	.	.
.	16ggn\	]	.	.
.	16ee\JJ	.	.	.
=163	=163	=163	=163	=163
8D\L 8d	8cc#^>/	.	8r	.
8d>\J 8f#>	4dd^>/	.	8A/ 8f#	.
*tremolo	*	*	*tremolo	*
8d>\ 8f#>L	.	.	8A/ 8f#L	.
8d>\ 8f#>	16bb/LL	.	8A/ 8f#	.
.	16aa/JJ	.	.	.
8d>\ 8f#>	16gg/LL	.	8A/ 8f#	.
.	16ff#/	.	.	.
8d>\ 8f#>J	16ee/	.	8A/ 8f#J	.
*Xtremolo	*	*	*Xtremolo	*
.	16ff#/JJ	.	.	.
!LO:LB:g=original	!LO:LB:g=original	!	!	!
=164	=164	=164	=164	=164
8D\L 8d	8cc#^>/	.	8r	.
8d>\J 8f#>	4dd^>/	.	8A/ 8f#	.
*tremolo	*	*	*tremolo	*
8d>\ 8f#>L	.	.	8A/ 8f#L	.
8d>\ 8f#>	16ddd/LL	.	8A/ 8f#	.
.	16ccc#/JJ	.	.	.
8d>\ 8f#>	16bb/LL	.	8A/ 8f#	.
.	16aa/	.	.	.
8d>\ 8f#>J	16gg/	.	8A/ 8f#J	.
*Xtremolo	*	*	*Xtremolo	*
.	16ff#/JJ	.	.	.
=165	=165	=165	=165	=165
8G\L	8ee\	.	8r	.
8B>\J 8e>	4bb\	.	8G/ 8e	.
*tremolo	*	*	*tremolo	*
8B>\ 8e>L	.	.	8G/ 8eL	.
8B>\ 8e>	16aa\LL	.	8G/ 8e	.
.	16gg\JJ	.	.	.
8B>\ 8e>	16ff#\LL	.	8G/ 8e	.
.	16ee\	.	.	.
8B>\ 8e>J	16gg\	.	8G/ 8eJ	.
*Xtremolo	*	*	*Xtremolo	*
.	16ee\JJ	.	.	.
!	!	!	!LO:LB:g=original	!
=166	=166	=166	=166	=166
8A\L	16dd/LL	.	8A/L 8e	.
.	16cc#/	.	.	.
8c#>\ 8e>	16ff#/	.	8a/	.
.	16ee/JJ	.	.	.
8c#>\ 8e>	16dd/LL	.	8a/	.
.	16cc#/	.	.	.
8c#>\J 8e>	16b/	.	8a/J	.
.	16a/JJ	.	.	.
8c#>\ 8e>	16aa\LL	.	8a/	.
.	16gg#X\	.	.	.
8r	16ggn\	.	8r	.
.	16ee\JJ	.	.	.
=167	=167	=167	=167	=167
8D\L 8d	8cc#^>/	.	8r	.
8d>\J 8f#>	4dd^>/	.	8A/ 8f#	.
*tremolo	*	*	*tremolo	*
8d>\ 8f#>L	.	.	8A/ 8f#L	.
8d>\ 8f#>	16bb/LL	.	8A/ 8f#	.
.	16aa/JJ	.	.	.
8d>\ 8f#>	16gg/LL	.	8A/ 8f#	.
.	16ff#/	.	.	.
8d>\ 8f#>J	16ee/	.	8A/ 8f#J	.
*Xtremolo	*	*	*Xtremolo	*
.	16ff#/JJ	.	.	.
=168	=168	=168	=168	=168
8BB\L 8B	8cc#/	.	8r	.
8d>\J 8f#>	4dd^>/	.	8B/ 8d	.
*tremolo	*	*	*tremolo	*
8d>\ 8f#>L	.	.	8B/ 8dL	.
8d>\ 8f#>	16ddd/LL	.	8B/ 8d	.
.	16ccc#/JJ	.	.	.
8d>\ 8f#>	16bb/LL	.	8B/ 8d	.
.	16aa/	.	.	.
8d>\ 8f#>J	16gg/	.	8B/ 8dJ	.
.	16ff#/JJ	.	.	.
*Xtremolo	*	*	*Xtremolo	*
!LO:LB:g=original	!LO:LB:g=original	!	!	!
=169	=169	=169	=169	=169
8G\L	8ee\L	.	8r	.
8B>\ 8e>	16bb\L	.	8G/L 8e	.
.	16aa#X\JJ	.	.	.
8B>\ 8e>	16ccc#\LL	.	8G/ 8e	.
.	16bb\	.	.	.
8B>\J 8e>	16aan\	.	8G/ 8e	.
.	16gg\JJ	.	.	.
8A\L	16ff#/LL	.	8A/ 8g	.
.	16ee/	.	.	.
8e>\J 8g>	16dd/	.	8A/J 8g	.
.	16cc#/JJ	.	.	.
=170	=170	=170	=170	=170
8d>\L 8f#>	4dd\	.	4A/ 4f#	.
16D\L	.	.	.	.
16E\JJ	.	.	.	.
16F#\LL	4.a\ 4.dd 4.ff# 4.aa	.	4r	.
16G\	.	.	.	.
16A\	.	.	.	.
16B\JJ	.	.	.	.
16c#>\LL	.	.	4r	.
16d>\	.	.	.	.
16e>\	8ff#\ 8fff#	.	.	.
16f#>\JJ	.	.	.	.
=171	=171	=171	=171	=171
4g>\	8ee/L 8ccc#	.	8r	.
.	16a/L	.	(16gg\LL	>
.	16b/JJ	.	16ff#\JJ	.
4.A\ 4.c# 4.e> 4.g>	16cc#/LL	.	16ee\LL	.
.	16dd/	.	16dd\	]
.	16ee/	.	16cc#\	.
.	16ff#/JJ	.	16b\JJ	.
.	16gg\LL	.	16a/LL	.
.	16aa\	.	16g/	.
8G\ 8A 8c# 8e>	16bb\	.	16f#/	.
.	16ccc#\JJ	.	16e/JJ	.
=172	=172	=172	=172	=172
8F#\L 8A 8d	4ddd\	.	4d/)	.
16D\L	.	.	.	.
16E\JJ	.	.	.	.
16F#\LL	4.a\ 4.dd 4.ff# 4.aa	.	4r	.
16G\	.	.	.	.
16A\	.	.	.	.
16B\JJ	.	.	.	.
16c#>\LL	.	.	4r	.
16d>\	.	.	.	.
16e>\	8ff#\ 8aa 8ddd	.	.	.
16f#>\JJ	.	.	.	.
!	!	!	!LO:LB:g=original	!
=173	=173	=173	=173	=173
4g>\	8ee/L 8aa 8ccc#	.	8r	.
.	16a/L	.	(16gg\LL	.
.	16b/JJ	.	16ff#\JJ	.
4.A\ 4.c# 4.e> 4.g>	16cc#/LL	.	16ee\LL	.
.	16dd/	.	16dd\	.
.	16ee/	.	16cc#\	.
.	16ff#/JJ	.	16b\JJ	.
.	16gg\LL	.	16a/LL	.
.	16aa\	.	16g/	.
8G\ 8A 8c# 8e>	16bb\	.	16f#/	.
.	16ccc#\JJ	.	16e/JJ	.
!LO:PB:g=original	!LO:PB:g=original	!	!	!
=174	=174	=174	=174	=174
4F#\ 4A 4d	16ddd\LL	.	4d/)	.
.	16ff#\	.	.	.
.	16gg\	.	.	.
.	16aa\JJ	.	.	.
4G\ 4B 4d 4e	16bb\LL	.	4g'/	.
.	16ee\	.	.	.
.	16ff#\	.	.	.
.	16gg\JJ	.	.	.
!	!LO:TX:t=P:problem:mixed beam	!	!	!
4A\ 4e>	16aa\LL	.	4e'/	.
.	16a/	.	.	.
.	16b/	.	.	.
.	16cc#/JJ	.	.	.
=175	=175	=175	=175	=175
8d>^\L 8f#>	4dd/	.	4f#/	.
16f#>\L	.	.	.	.
16e>\JJ	.	.	.	.
16d\LL	4.a/ 4.dd 4.ff#	.	4r	.
16c#\	.	.	.	.
16B\	.	.	.	.
16A\JJ	.	.	.	.
16G\LL	.	.	4r	.
16F#\	.	.	.	.
16E\	8a\ 8dd 8ff# 8aa	.	.	.
16D\JJ	.	.	.	.
=176	=176	=176	=176	=176
4C#/	8a\L 8ee 8gg	.	8r	.
.	16eee\L	.	(16c#/LL	.
.	16ddd\JJ	.	16d/JJ	.
4.AA^\ 4.C# 4.E 4.A	16ccc#\LL	.	16e/LL	.
.	16bb\	.	16f#/	.
.	16aa\	.	16g/	.
.	16gg\JJ	.	16a/JJ	.
.	16ff#\LL	.	16b\LL	.
.	16ee\	.	16cc#\	.
8C#\ 8E 8A	16aa\	.	16dd\	.
.	16gg\JJ	.	16ee\JJ	.
=177	=177	=177	=177	=177
8D\L 8F# 8A	4ff#/	.	4ff#\)	.
16f#>^\L	.	.	.	.
16e>\JJ	.	.	.	.
16d\LL	4.a/ 4.dd 4.ff#	.	4r	.
16c#\	.	.	.	.
16B\	.	.	.	.
16A\JJ	.	.	.	.
16G\LL	.	.	4r	.
16F#\	.	.	.	.
16E\	8a\ 8dd 8ff# 8aa	.	.	.
16D\JJ	.	.	.	.
=178	=178	=178	=178	=178
4C#/	8a\L 8ee 8gg	.	8r	.
.	16eee\L	.	(16c#/LL	.
.	16ddd\JJ	.	16d/JJ	.
4.C#^\ 4.E 4.A	16ccc#\LL	.	16e/LL	.
.	16bb\	.	16f#/	.
.	16aa\	.	16g/	.
.	16gg\JJ	.	16a/JJ	.
.	16ff#\LL	.	16b\LL	.
.	16ee\	.	16cc#\	.
8C#\ 8E 8A	16aa\	.	16dd\	.
.	16gg\JJ	.	16ee\JJ	.
!LO:LB:g=original	!LO:LB:g=original	!	!LO:LB:g=original	!
=179	=179	=179	=179	=179
4D\ 4F# 4A	16ff#\LL	.	4ff#\)	.
.	16dd\	.	.	.
.	16aa\	.	.	.
.	16ff#\JJ	.	.	.
4F#\ 4A 4d	16ddd\LL	.	4r	.
.	16ccc#\	.	.	.
.	16bb\	.	.	.
.	16aa\JJ	.	.	.
4r	16gg\LL	.	4r	.
.	16ff#\	.	.	.
.	16ee\	.	.	.
.	16dd\JJ	.	.	.
=180	=180	=180	=180	=180
!	!	!	!LO:N:vis=2	!
4G\ 4B 4d	4b\	.	2.r;	.
4G#X\ 4B 4d	4e\ 4dd 4ee 4bb	rf	.	.
4r;	4r;	.	.	.
=181	=181	=181	=181	=181
!	!	!	!LO:TX:a:t=4	!
!	!	!LO:DY:t=p.	!LO:N:vis=00	!
2A\ 2d 2f#	8r	p	0.r	.
.	8a/L	.	.	.
.	8a/	.	.	.
.	8a/J	.	.	.
4A\ 4e 4gn	16g#X/LL	.	.	.
.	16a/	.	.	.
.	16b/	.	.	.
.	16cc#/JJ	.	.	.
*clefG2	*	*	*	*
=182	=182	=182	=182	=182
2A/ 2f# 2a	16dd\LL	.	.	.
.	16ee\	.	.	.
.	16ff#\	.	.	.
.	16gg\JJ	.	.	.
.	8aa\L	.	.	.
.	8aa\J	.	.	.
4A/ 4e 4g	16gg#X\LL	.	.	.
.	16aa\	.	.	.
.	16bb\	.	.	.
.	16aa\JJ	.	.	.
=183	=183	=183	=183	=183
2A/ 2d 2f#	8ff#\L	.	.	.
.	8a\	.	.	.
.	8a\	.	.	.
.	8a\J	.	.	.
4A/ 4e 4gn	16g#X/LL	.	.	.
.	16a/	.	.	.
.	16b/	.	.	.
.	16cc#/JJ	.	.	.
!LO:LB:g=original	!LO:LB:g=original	!	!	!
=184	=184	=184	=184	=184
!	!	!	!LO:TX:i:t=V.S.	!
2A/ 2f# 2a	16dd\LL	.	.	.
.	16ee\	.	.	.
.	16ff#\	.	.	.
.	16gg\JJ	.	.	.
.	8aa\L	.	.	.
.	8aa\J	.	.	.
4A/ 4e 4g	16aa\LL	.	.	.
.	16gg\	.	.	.
.	16ee\	.	.	.
.	16cc#\JJ	.	.	.
!	!	!	!LO:PB:g=original	!
=185	=185	=185	=185	=185
4d/ 4f#	4dd\	.	8r	.
!	!	!	!LO:TX:a:i:t=Dol	!
.	.	.	8dd\L	.
4r	4r	.	8dd\	.
.	.	.	8dd\J	.
*clefF4	*	*	*	*
!	!	!LO:DY:t=p.	!	!
4DD/ 4D	4d\ 4f# 4a 4ccn	p	(16cc#\LL	.
.	.	.	16dd\	.
.	.	.	16ee\	.
.	.	.	16dd\JJ)	.
=186	=186	=186	=186	=186
2DD/ 2D	2d/ 2g 2b	.	8gg\L	.
.	.	.	8dd\	.
.	.	.	8dd\	.
.	.	.	8dd\J	.
4DD/ 4D	4d/ 4g 4b-X	.	16cc#\LL	.
.	.	.	16dd\	.
.	.	.	16ee\	.
.	.	.	16dd\JJ	.
=187	=187	=187	=187	=187
2DD/ 2D	2d/ 2g 2a	.	8aa\L	.
.	.	.	8dd\	.
.	.	.	8dd\	.
.	.	.	8dd\J	.
4DD/ 4D	4d/ 4f# 4a	.	16cc#\LL	.
.	.	.	16dd\	.
.	.	.	16ee\	.
.	.	.	16dd\JJ	.
=188	=188	=188	=188	=188
2DD/ 2D	2d/ 2fn 2g#X	.	8bb\L	.
.	.	.	8dd\J	.
.	.	.	8dd\L	.
.	.	.	16ee\L	.
.	.	.	16ff#\JJ	.
4DD/ 4D	4d/ 4e 4gn	.	16gg\LL	.
.	.	.	16aa\	.
.	.	.	16bb\	.
.	.	.	16ccc#\JJ	.
=189	=189	=189	=189	=189
4DD/ 4D	8d/ 8f#	.	4ddd\	.
.	4dd^>/	.	.	.
*clefG2	*	*	*	*
!	!	!	!	!LO:DY:t=p.
2d^/ 2a 2ccn	.	.	4r	p
.	16ee/LL	.	.	.
.	16dd/JJ	.	.	.
.	16cc#X/LL	.	(4a\	.
.	16dd/	.	.	.
.	16ee/	.	.	.
.	16dd/JJ	.	.	.
!LO:LB:g=original	!LO:LB:g=original	!	!LO:LB:g=original	!
=190	=190	=190	=190	=190
4d/ 4g 4b	8gg\	.	4b\)	.
.	4dd^<\	.	.	.
2d^/ 2g 2b-X	.	.	4r	.
.	16ee\LL	.	.	.
.	16dd\JJ	.	.	.
.	16cc#\LL	.	(4g/	.
.	16dd\	.	.	.
.	16ee\	.	.	.
.	16dd\JJ	.	.	.
=191	=191	=191	=191	=191
4d/ 4f# 4a	8aa\	.	4a/)	.
.	4dd^<\	.	.	.
2d^/ 2f# 2a	.	.	4r	.
.	16ee\LL	.	.	.
.	16dd\JJ	.	.	.
.	16cc#\LL	.	(4f#/	.
.	16dd\	.	.	.
.	16ee\	.	.	.
.	16dd\JJ	.	.	.
=192	=192	=192	=192	=192
4d/ 4fn 4g#X	8bb\	.	4g#X/)	.
.	4dd^<\	.	.	.
2d^/ 2e 2gn	.	.	4r	.
.	16eee\LL	.	.	.
.	16ddd\JJ	.	.	.
.	16ccc#\LL	.	(4e/	.
.	16ddd\	.	.	.
.	16eee\	.	.	.
.	16ccc#\JJ	.	.	.
=193	=193	=193	=193	=193
!	!	!	!LO:TX:t=P:problem:mixed beam	!
4d/ 4f#	4ddd\	.	8f#/L)	.
.	.	.	16gg#X\L	.
.	.	.	16aa\JJ	.
4r	4r	.	16bb\LL	.
.	.	.	16aa\	.
.	.	.	16ggn\	.
.	.	.	16ff#\JJ	.
(4A/ 4c# 4e	8r	.	16aa\LL	.
.	.	.	16gg\	.
.	(16aa^<\LL	.	16b\	.
.	16gg\JJ	.	16cc#\JJ	.
=194	=194	=194	=194	=194
4d/) 4f#	16ff#\LL)	.	4dd\	.
.	16ee\	.	.	.
.	16dd\	.	.	.
.	16cc#\JJ	.	.	.
4r	16b\LL	.	4r	.
.	16a\	.	.	.
.	16g#X\	.	.	.
.	16a\JJ	.	.	.
(4A/ 4e 4g	16b\LL	.	(4g/	.
.	16a\	.	.	.
.	16cc#\	.	.	.
.	16a\JJ	.	.	.
!LO:LB:g=original	!LO:LB:g=original	!	!	!
=195	=195	=195	=195	=195
4d/) 4f#	4dd\	.	8f#/L)	.
.	.	.	(16g#X/L	.
.	.	.	16a/JJ	.
4r	4r	.	16b/LL	.
.	.	.	16a/	.
.	.	.	16gn/	.
.	.	.	16f#/JJ)	.
!	!	!	!LO:LB:g=original	!
=-	=-	=-	=-	=-
*clefF4	*	*	*	*
(4AA^<\ 4C# 4E	8r	.	16a/LL	.
.	.	.	16g/	.
.	(16a/LL	.	16B/	.
.	16g/JJ	.	16c#/JJ	.
=196	=196	=196	=196	=196
4D\) 4F#	16f#/LL)	.	4d/	.
.	16e/	.	.	.
.	16d/	.	.	.
.	16c#/JJ	.	.	.
4r	16B</LL	.	4r	.
.	16A</	.	.	.
.	16G#<X/	.	.	.
.	16A</JJ	.	.	.
4AA\ 4E 4G	16B</LL	.	[4A/ 4e	.
.	16A</	.	.	.
.	16c#</	.	.	.
.	16A</JJ	.	.	.
=197	=197	=197	=197	=197
!	!	!LO:DY:b=2:t=ffo	!	!
8D\L 8F#	8F#</L 8d<	ff	8A/] 8f#	.
16DD\L	16D</L	.	8r	.
16EE\JJ	16E</JJ	.	.	.
16FF#\LL	16F#</LL	.	4r	.
16GG\	16G</	.	.	.
16AA\	16A</	.	.	.
16BB\JJ	16B</JJ	.	.	.
16C#\LL	16c#/LL	.	4r	.
16D\	16d/	.	.	.
16E\	16e/	.	.	.
16F#\JJ	16f#/JJ	.	.	.
=198	=198	=198	=198	=198
!	!	!	!LO:TX:a:t=1	!
16G\LL	16g\LL	.	2.r	.
16A\	16a\	.	.	.
16B\	16b\	.	.	.
16c#\JJ	16cc#\JJ	.	.	.
*clefG2	*	*	*	*
16d/LL	16dd\LL	<	.	.
16e/	16ee\	.	.	.
16f#/	16ff#\	.	.	.
16g/JJ	16gg\JJ	.	.	.
16a/LL	16aa\LL	.	.	.
16b/	16bb\	.	.	.
16cc#/	16ccc#\	.	.	.
!LO:N:vis=32	!LO:N:vis=32	!	!	!
64dd/LL	64ddd\LL	.	.	.
!LO:N:vis=32	!LO:N:vis=32	!	!	!
64ee/	64eee\	.	.	.
!LO:N:vis=32	!LO:N:vis=32	!	!	!
64ff#/	64fff#\	.	.	.
!LO:N:vis=32	!LO:N:vis=32	!	!	!
64gg/JJJJ	64ggg\JJJJ	[[	.	.
!LO:LB:g=original	!LO:LB:g=original	!	!	!
=199	=199	=199	=199	=199
4aa\	4aaa\	.	4r	ff
*clefF4	*	*	*	*
4AA\ 4A	4dd\ 4ff# 4aa 4ddd	.	4a\ 4ff#	.
4AA\ 4A	4ee\ 4gg 4aa 4ccc#	.	4a\ 4gg	.
=200	=200	=200	=200	=200
4D\ 4A	4dd\ 4ff# 4aa 4ddd	.	4a\ 4ff#	.
4DD/ 4D	4f#/ 4a 4dd	.	4d/	.
!	!	!	!LO:TX:b:i:t=Fine	!
4r	4r	.	4r	.
!LO:PB:g=original	!LO:PB:g=original	!	!LO:PB:g=original	!
==	==	==	==	==
*-	*-	*-	*-	*-
!!!system-decoration: s1[(s2,s3)]
!!!RDF**kern: < = below
!!!RDF**kern: > = above
!!!AIN: 1 cello 1 empty
!!!ENC: Marta Chmielewska
!!!END: 2021-04-14
!!!ENC: Kamil Watkowski
!!!END: 2021-03-27
!!!RDF**kern: | = vertical stroke
